assets/icons/ic_home.svg

<svg width="24" height="24" viewBox="0 0 24 24" fill="none" xmlns="http://www.w3.org/2000/svg">
<path d="M12.29 2.00075L11.75 2.516L2 12.266L3.08 13.346L4.04 12.383V21.0552H10.79V13.5552H13.79V21.0552H20.54V12.383L21.5 13.3445L22.58 12.2645L12.83 2.5145L12.29 2.00075ZM12.29 4.13375L19.04 10.8837V19.5552H15.29V12.0552H9.29V19.5552H5.54V10.883L12.29 4.13375Z" fill="black"/>
</svg>

<?xml version="1.0" encoding="utf-8"?>
<!-- Generator: Adobe Illustrator 25.4.1, SVG Export Plug-In . SVG Version: 6.00 Build 0)  -->
<svg version="1.1" id="Layer_1" xmlns="http://www.w3.org/2000/svg" xmlns:xlink="http://www.w3.org/1999/xlink" x="0px" y="0px"
	 viewBox="0 0 24 24" style="enable-background:new 0 0 24 24;" xml:space="preserve">
<style type="text/css">
	.st0{fill:none;stroke:#58269F;stroke-miterlimit:10;}
</style>
<path class="st0" d="M12.3,2l-0.5,0.5L2,12.3l1.1,1.1l1-1v8.7h6.8v-7.5h3v7.5h6.8v-8.7l1,1l1.1-1.1l-9.8-9.8L12.3,2z M12.3,4.1
	l6.8,6.7v8.7h-3.8v-7.5h-6v7.5H5.5v-8.7L12.3,4.1z"/>
</svg>
